; generated by PrusaSlicer 2.4.2+win64 on 2022-10-31 at 14:17:07 UTC


;
;
; 

; external perimeters extrusion width = 0.45mm
; perimeters extrusion width = 0.45mm
; infill extrusion width = 0.45mm
; solid infill extrusion width = 0.45mm
; top infill extrusion width = 0.40mm
; first layer extrusion width = 0.42mm

; external perimeters extrusion width = 0.45mm
; perimeters extrusion width = 0.45mm
; infill extrusion width = 0.45mm
; solid infill extrusion width = 0.45mm
; top infill extrusion width = 0.40mm
; first layer extrusion width = 0.42mm

; external perimeters extrusion width = 0.45mm
; perimeters extrusion width = 0.45mm
; infill extrusion width = 0.45mm
; solid infill extrusion width = 0.45mm
; top infill extrusion width = 0.40mm
; first layer extrusion width = 0.42mm

; external perimeters extrusion width = 0.45mm
; perimeters extrusion width = 0.45mm
; infill extrusion width = 0.45mm
; solid infill extrusion width = 0.45mm
; top infill extrusion width = 0.40mm
; first layer extrusion width = 0.42mm

; external perimeters extrusion width = 0.45mm
; perimeters extrusion width = 0.45mm
; infill extrusion width = 0.45mm
; solid infill extrusion width = 0.45mm
; top infill extrusion width = 0.40mm
; first layer extrusion width = 0.42mm

; external perimeters extrusion width = 0.45mm
; perimeters extrusion width = 0.45mm
; infill extrusion width = 0.45mm
; solid infill extrusion width = 0.45mm
; top infill extrusion width = 0.40mm
; first layer extrusion width = 0.42mm

; external perimeters extrusion width = 0.45mm
; perimeters extrusion width = 0.45mm
; infill extrusion width = 0.45mm
; solid infill extrusion width = 0.45mm
; top infill extrusion width = 0.40mm
; first layer extrusion width = 0.42mm

; external perimeters extrusion width = 0.45mm
; perimeters extrusion width = 0.45mm
; infill extrusion width = 0.45mm
; solid infill extrusion width = 0.45mm
; top infill extrusion width = 0.40mm
; first layer extrusion width = 0.42mm

M73 P0 R84
M73 Q0 S85
M201 X1000 Y1000 Z200 E5000 ; sets maximum accelerations, mm/sec^2
M203 X200 Y200 Z12 E120 ; sets maximum feedrates, mm / sec
M204 P1250 R1250 T1250 ; sets acceleration (P, T) and retract acceleration (R), mm/sec^2
M205 X8.00 Y8.00 Z0.40 E4.50 ; sets the jerk limits, mm/sec
M205 S0 T0 ; sets the minimum extruding and travel feed rate, mm/sec
M107
;TYPE:Custom
M862.3 P "MK3S" ; printer model check
M862.1 P0.4 ; nozzle diameter check
M115 U3.11.0 ; tell printer latest fw version
G90 ; use absolute coordinates
M83 ; extruder relative mode
M104 S215 ; set extruder temp
M140 S60 ; set bed temp
M190 S60 ; wait for bed temp
M109 S215 ; wait for extruder temp
G28 W ; home all without mesh bed level
G80 ; mesh bed leveling

G1 Z0.2 F720
G1 Y-3 F1000 ; go outside print area
G92 E0
G1 X60 E9 F1000 ; intro line
G1 X100 E12.5 F1000 ; intro line

G92 E0
M221 S95

; Don't change E values below. Excessive value can damage the printer.

G21 ; set units to millimeters
G90 ; use absolute coordinates
M83 ; use relative distances for extrusion
M900 K0.05 ; Filament gcode LA 1.5
M900 K30 ; Filament gcode LA 1.0
M107
;LAYER_CHANGE
;Z:0.35
;HEIGHT:0.35
;BEFORE_LAYER_CHANGE
G92 E0.0
;0.35


G1 E-.8 F2100
G1 Z.4 F7800
;AFTER_LAYER_CHANGE
;0.35
G1 X77.213 Y48.533
G1 Z.35
G1 E.8 F2100
;TYPE:Skirt/Brim
;WIDTH:0.42
G1 F1800
G1 X78.418 Y46.64 E.11262
G1 X80.206 Y45.285 E.11262
G1 X83.083 Y44.596 E.14847
G1 X103.098 Y44.596 E1.00446
G1 X168.154 Y44.747 E3.26489
G1 X170.361 Y45.149 E.11262
M73 Q0 S84
G1 X172.291 Y46.295 E.11262
G1 X173.702 Y48.04 E.11262
G1 X174.484 Y51.092 E.15812
G1 X174.484 Y69.092 E.90335
G1 X171.116 Y106.282 E1.87404
G1 X170.554 Y108.372 E.10865
G1 X157.244 Y137.097 E1.58882
G1 X155.956 Y138.935 E.11262
G1 X154.108 Y140.208 E.11262
G1 X151.487 Y140.775 E.13456
G1 X131.487 Y140.775 E1.00372
G1 X96.533 Y138.614 E1.75754
G1 X94.354 Y138.081 E.11262
G1 X92.496 Y136.822 E.11262
G1 X91.264 Y135.143 E.10453
G1 X76.289 Y105.504 E1.66652
G1 X75.607 Y102.643 E.14762
G1 X75.611 Y84.43 E.91403
G1 X76.742 Y50.728 E1.69234
G1 X77.2 Y48.592 E.10961
;WIPE_START
G1 F6240
G1 X78.418 Y46.64 E-.73547
G1 X78.479 Y46.594 E-.02453
;WIPE_END
G1 E-.04 F2100
G1 Z.75 F7800
G1 X154.758 Y60.746
G1 Z.35
G1 E.8 F2100
;TYPE:Perimeter
G1 F1800
G1 X154.846 Y60.235 E.02602
G1 X155.038 Y59.69 E.02897
G1 X155.319 Y59.186 E.02897
G1 X155.682 Y58.737 E.02897
G1 X156.115 Y58.356 E.02897
G1 X156.607 Y58.053 E.02897
G1 X157.142 Y57.838 E.02897
G1 X157.707 Y57.717 E.02897
G1 X158.24 Y57.694 E.0268
G1 X158.85 Y57.764 E.03081
G1 X159.408 Y57.934 E.02928
G1 X159.923 Y58.194 E.02897
G1 X160.387 Y58.537 E.02897
G1 X160.787 Y58.954 E.02897
G1 X161.11 Y59.432 E.02897
G1 X161.348 Y59.958 E.02897
G1 X161.493 Y60.517 E.02897
G1 X161.542 Y61.092 E.02897
G1 X161.493 Y61.667 E.02897
G1 X161.348 Y62.226 E.02897
G1 X161.128 Y62.712 E.0268
G1 X160.791 Y63.225 E.0308
G1 X160.387 Y63.647 E.02928
G1 X159.923 Y63.99 E.02897
G1 X159.408 Y64.25 E.02897
G1 X158.856 Y64.419 E.02897
G1 X158.283 Y64.492 E.02897
G1 X157.707 Y64.467 E.02897
G1 X157.142 Y64.346 E.02897
G1 X156.607 Y64.131 E.02897
G1 X156.115 Y63.828 E.02897
G1 X155.682 Y63.447 E.02897
G1 X155.319 Y62.998 E.02897
G1 X155.038 Y62.494 E.02897
G1 X154.846 Y61.949 E.02897
G1 X154.748 Y61.381 E.02897
G1 X154.748 Y60.805 E.0289
G1 X155.098 Y60.804 F7800
G1 F1800
G1 X155.181 Y60.322 E.02455
G1 X155.353 Y59.833 E.02602
G1 X155.606 Y59.38 E.02602
G1 X155.932 Y58.977 E.02602
G1 X156.321 Y58.634 E.02602
G1 X156.763 Y58.362 E.02602
G1 X157.244 Y58.169 E.02602
G1 X157.751 Y58.06 E.02602
G1 X158.228 Y58.04 E.02397
G1 X158.779 Y58.103 E.02786
G1 X159.279 Y58.256 E.02621
G1 X159.742 Y58.489 E.02602
G1 X160.159 Y58.797 E.02602
G1 X160.517 Y59.172 E.02602
G1 X160.808 Y59.601 E.02602
G1 X161.021 Y60.074 E.02602
G1 X161.152 Y60.575 E.02602
G1 X161.196 Y61.092 E.02602
G1 X161.152 Y61.609 E.02602
G1 X161.021 Y62.11 E.02602
G1 X160.824 Y62.546 E.02397
G1 X160.52 Y63.01 E.02786
G1 X160.159 Y63.387 E.02621
G1 X159.742 Y63.695 E.02602
G1 X159.279 Y63.928 E.02602
G1 X158.783 Y64.08 E.02602
G1 X158.269 Y64.146 E.02602
G1 X157.751 Y64.124 E.02602
G1 X157.244 Y64.015 E.02602
G1 X156.763 Y63.822 E.02602
G1 X156.321 Y63.55 E.02602
G1 X155.932 Y63.207 E.02602
G1 X155.606 Y62.804 E.02602
G1 X155.353 Y62.351 E.02602
G1 X155.181 Y61.862 E.02602
G1 X155.093 Y61.351 E.02602
G1 X155.093 Y60.863 E.02448
G1 X155.438 Y60.862 F7800
;TYPE:External perimeter
G1 F1800
G1 X155.516 Y60.409 E.02307
G1 X155.669 Y59.975 E.02307
G1 X155.893 Y59.574 E.02307
G1 X156.182 Y59.216 E.02307
G1 X156.527 Y58.913 E.02307
G1 X156.919 Y58.671 E.02307
G1 X157.345 Y58.5 E.02307
G1 X157.795 Y58.403 E.02307
G1 X158.215 Y58.385 E.02114
G1 X158.709 Y58.442 E.02491
G1 X159.15 Y58.577 E.02315
G1 X159.56 Y58.784 E.02307
G1 X159.93 Y59.057 E.02307
G1 X160.248 Y59.389 E.02307
G1 X160.505 Y59.77 E.02307
G1 X160.695 Y60.189 E.02307
G1 X160.811 Y60.634 E.02307
G1 X160.85 Y61.092 E.02307
G1 X160.811 Y61.55 E.02307
G1 X160.695 Y61.995 E.02307
G1 X160.521 Y62.379 E.02114
G1 X160.249 Y62.794 E.02491
G1 X159.93 Y63.127 E.02315
G1 X159.56 Y63.4 E.02307
G1 X159.15 Y63.607 E.02307
G1 X158.71 Y63.742 E.02307
G1 X158.254 Y63.8 E.02307
G1 X157.795 Y63.781 E.02307
G1 X157.345 Y63.684 E.02307
G1 X156.919 Y63.513 E.02307
G1 X156.527 Y63.271 E.02307
G1 X156.182 Y62.968 E.02307
G1 X155.893 Y62.61 E.02307
G1 X155.669 Y62.209 E.02307
G1 X155.516 Y61.775 E.02307
G1 X155.438 Y61.322 E.02307
G1 X155.438 Y60.922 E.02006
G1 X155.11 Y60.633 F7800
;WIPE_START
G1 F6240
G1 X155.516 Y60.409 E-.16593
G1 X155.669 Y59.975 E-.14699
G1 X155.893 Y59.574 E-.147
G1 X156.182 Y59.216 E-.147
G1 X156.527 Y58.913 E-.147
G1 X156.543 Y58.903 E-.00608
;WIPE_END
G1 E-.04 F2100
G1 Z.75 F7800
G1 X149.039 Y68.192
G1 Z.35
G1 E.8 F2100
;TYPE:Perimeter
G1 F1800
G1 X149.039 Y51.992 E.81303
G1 X167.239 Y51.992 E.91341
G1 X167.239 Y68.192 E.81303
G1 X149.099 Y68.192 E.9104
G1 X148.694 Y68.537 F7800
G1 F1800
G1 X148.694 Y51.647 E.84765
G1 X167.584 Y51.647 E.94802
G1 X167.584 Y68.537 E.84765
G1 X148.754 Y68.537 E.94501
G1 X148.349 Y68.882 F7800
;TYPE:External perimeter
G1 F1800
G1 X148.349 Y51.302 E.88227
G1 X167.929 Y51.302 E.98264
G1 X167.929 Y68.882 E.88227
G1 X148.409 Y68.882 E.97963
G1 X148.459 Y68.498 F7800
;WIPE_START
G1 F6240
G1 X148.401 Y66.505 E-.76
;WIPE_END
G1 E-.04 F2100
G1 Z.75 F7800
G1 X166.43 Y52.095
G1 Z.35
G1 E.8 F2100
;TYPE:Solid infill
;WIDTH:0.424114
G1 F1800
G1 X166.98 Y52.646 E.03955
G1 X166.98 Y53.14 E.02507
G1 X166.091 Y52.25 E.06385
G1 X165.598 Y52.25 E.02507
G1 X166.98 Y53.633 E.0993
G1 X166.98 Y54.127 E.02507
G1 X165.104 Y52.25 E.13475
G1 X164.611 Y52.25 E.02507
G1 X166.98 Y54.62 E.1702
G1 X166.98 Y55.114 E.02507
G1 X164.117 Y52.25 E.20565
G1 X163.624 Y52.25 E.02507
G1 X166.98 Y55.607 E.24109
G1 X166.98 Y56.101 E.02507
G1 X163.13 Y52.25 E.27654
G1 X162.636 Y52.25 E.02507
G1 X166.98 Y56.594 E.31199
G1 X166.98 Y57.088 E.02507
G1 X162.143 Y52.25 E.34744
G1 X161.649 Y52.25 E.02507
G1 X166.98 Y57.582 E.38289
G1 X166.98 Y58.075 E.02507
G1 X161.156 Y52.25 E.41833
G1 X160.662 Y52.25 E.02507
G1 X166.98 Y58.569 E.45378
G1 X166.98 Y59.062 E.02507
G1 X160.169 Y52.25 E.48923
G1 X159.675 Y52.25 E.02507
G1 X166.98 Y59.556 E.52468
G1 X166.98 Y60.049 E.02507
G1 X159.181 Y52.25 E.56013
G1 X158.688 Y52.25 E.02507
M73 P0 R83
G1 X166.98 Y60.543 E.59557
G1 X166.98 Y61.037 E.02507
G1 X158.194 Y52.25 E.63102
G1 X157.701 Y52.25 E.02507
G1 X166.98 Y61.53 E.66647
G1 X166.98 Y62.024 E.02507
G1 X157.207 Y52.25 E.70192
G1 X156.714 Y52.25 E.02507
G1 X166.98 Y62.517 E.73736
G1 X166.98 Y63.011 E.02507
G1 X156.22 Y52.25 E.77281
G1 X155.727 Y52.25 E.02507
G1 X166.98 Y63.504 E.80826
G1 X166.98 Y63.998 E.02507
G1 X155.233 Y52.25 E.84371
G1 X154.739 Y52.25 E.02507
G1 X166.98 Y64.492 E.87916
G1 X166.98 Y64.985 E.02507
G1 X161.366 Y59.37 E.40327
G1 X160.989 Y58.791 E.03509
G1 X160.559 Y58.343 E.03155
G1 X160.059 Y57.973 E.03155
G1 X159.876 Y57.881 E.0104
G1 X154.246 Y52.25 E.40439
G1 X153.752 Y52.25 E.02507
G1 X159.059 Y57.557 E.38112
G1 X158.903 Y57.509 E.00828
G1 X158.468 Y57.46 E.02224
G1 X153.259 Y52.25 E.37412
G1 X152.765 Y52.25 E.02507
G1 X157.962 Y57.447 E.37321
G1 X157.674 Y57.459 E.01463
G1 X157.514 Y57.493 E.00827
G1 X152.272 Y52.25 E.37655
G1 X151.778 Y52.25 E.02507
G1 X157.108 Y57.581 E.38283
G1 X156.751 Y57.717 E.01943
G1 X151.284 Y52.25 E.39259
G1 X150.791 Y52.25 E.02507
G1 X156.411 Y57.87 E.40362
G1 X156.105 Y58.058 E.01822
G1 X150.297 Y52.25 E.41713
G1 X149.804 Y52.25 E.02507
G1 X155.822 Y58.269 E.43227
G1 X155.56 Y58.5 E.01776
G1 X149.297 Y52.25 E.44932
G1 X149.297 Y52.731 E.02441
G1 X155.329 Y58.763 E.4332
G1 X155.109 Y59.036 E.01782
G1 X149.297 Y53.225 E.41736
G1 X149.297 Y53.718 E.02507
G1 X154.931 Y59.352 E.4046
G1 X154.801 Y59.583 E.01347
G1 X154.767 Y59.681 E.00527
G1 X149.297 Y54.212 E.39282
G1 X149.297 Y54.705 E.02507
G1 X154.638 Y60.046 E.38356
G1 X154.594 Y60.169 E.00663
G1 X154.547 Y60.448 E.01438
G1 X149.297 Y55.199 E.377
G1 X149.297 Y55.693 E.02507
G1 X154.489 Y60.885 E.3729
G1 X154.489 Y61.378 E.02507
G1 X149.297 Y56.186 E.3729
G1 X149.297 Y56.68 E.02507
G1 X154.828 Y62.211 E.39723
;WIPE_START
G1 F6240
G1 X153.147 Y60.53 E-.76
;WIPE_END
G1 E-.04 F2100
G1 Z.75 F7800
G1 X161.452 Y59.951
G1 Z.35
G1 E.8 F2100
G1 F1800
G1 X166.98 Y65.479 E.39702
G1 X166.98 Y65.972 E.02507
G1 X161.774 Y60.765 E.37395
G1 X161.802 Y61.092 E.01664
G1 X161.786 Y61.272 E.00915
G1 X166.98 Y66.466 E.37305
G1 X166.98 Y66.959 E.02507
G1 X161.745 Y61.724 E.37598
G1 X161.643 Y62.116 E.02055
G1 X166.98 Y67.453 E.38331
G1 X166.98 Y67.934 E.02441
G1 X161.516 Y62.482 E.39202
G1 X161.362 Y62.822 E.01894
G1 X166.474 Y67.934 E.36714
G1 X165.98 Y67.934 E.02507
G1 X161.168 Y63.122 E.3456
G1 X160.968 Y63.415 E.01803
G1 X165.487 Y67.934 E.32456
G1 X164.993 Y67.934 E.02507
G1 X160.726 Y63.667 E.30646
G1 X160.559 Y63.841 E.0123
G1 X160.472 Y63.906 E.00549
G1 X164.5 Y67.934 E.28928
G1 X164.006 Y67.934 E.02507
G1 X160.188 Y64.116 E.27421
G1 X160.059 Y64.211 E.00814
G1 X159.88 Y64.301 E.01018
G1 X163.513 Y67.934 E.26088
G1 X163.019 Y67.934 E.02507
G1 X159.552 Y64.467 E.249
G1 X159.181 Y64.589 E.01983
G1 X162.525 Y67.934 E.24017
G1 X162.032 Y67.934 E.02507
G1 X158.787 Y64.688 E.23308
G1 X158.349 Y64.744 E.0224
G1 X161.538 Y67.934 E.22905
G1 X161.045 Y67.934 E.02507
G1 X157.843 Y64.732 E.22993
G1 X157.674 Y64.725 E.00863
G1 X157.252 Y64.634 E.02192
G1 X160.551 Y67.934 E.23698
G1 X160.058 Y67.934 E.02507
G1 X156.481 Y64.357 E.25687
G1 X155.961 Y64.037 E.03102
G1 X155.495 Y63.626 E.03155
G1 X155.104 Y63.143 E.03155
G1 X154.898 Y62.774 E.02144
G1 X149.297 Y57.173 E.40227
G1 X149.297 Y57.667 E.02507
G1 X159.564 Y67.934 E.73736
G1 X159.071 Y67.934 E.02507
M73 P1 R83
M73 Q1 S84
G1 X149.297 Y58.16 E.70191
G1 X149.297 Y58.654 E.02507
G1 X158.577 Y67.934 E.66647
G1 X158.083 Y67.934 E.02507
G1 X149.297 Y59.147 E.63102
G1 X149.297 Y59.641 E.02507
G1 X157.59 Y67.934 E.59557
G1 X157.096 Y67.934 E.02507
G1 X149.297 Y60.135 E.56012
G1 X149.297 Y60.628 E.02507
G1 X156.603 Y67.934 E.52467
G1 X156.109 Y67.934 E.02507
G1 X149.297 Y61.122 E.48923
G1 X149.297 Y61.615 E.02507
G1 X155.616 Y67.934 E.45378
G1 X155.122 Y67.934 E.02507
G1 X149.297 Y62.109 E.41833
G1 X149.297 Y62.602 E.02507
G1 X154.628 Y67.934 E.38288
G1 X154.135 Y67.934 E.02507
G1 X149.297 Y63.096 E.34743
G1 X149.297 Y63.59 E.02507
G1 X153.641 Y67.934 E.31199
G1 X153.148 Y67.934 E.02507
G1 X149.297 Y64.083 E.27654
G1 X149.297 Y64.577 E.02507
G1 X152.654 Y67.934 E.24109
G1 X152.161 Y67.934 E.02507
G1 X149.297 Y65.07 E.20564
G1 X149.297 Y65.564 E.02507
G1 X151.667 Y67.934 E.17019
G1 X151.173 Y67.934 E.02507
G1 X149.297 Y66.057 E.13475
G1 X149.297 Y66.551 E.02507
G1 X150.68 Y67.934 E.0993
G1 X150.186 Y67.934 E.02507
G1 X149.297 Y67.045 E.06385
G1 X149.297 Y67.538 E.02507
G1 X149.848 Y68.089 E.03955
;WIPE_START
G1 F6240
G1 X149.297 Y67.538 E-.24898
G1 X149.297 Y67.045 E-.1578
G1 X150.079 Y67.826 E-.35322
;WIPE_END
G1 E-.04 F2100
G1 Z.75 F7800
G1 X130.339 Y62.36
G1 Z.35
G1 E.8 F2100
;TYPE:Perimeter
;WIDTH:0.42
G1 F1800
G1 X130.143 Y62.793 E.02385
G1 X129.806 Y63.306 E.0308
G1 X129.402 Y63.727 E.02928
G1 X128.938 Y64.071 E.02897
G1 X128.423 Y64.33 E.02897
G1 X127.871 Y64.499 E.02897
G1 X127.299 Y64.573 E.02897
G1 X126.722 Y64.548 E.02897
G1 X126.158 Y64.427 E.02897
G1 X125.622 Y64.211 E.02897
G1 X125.131 Y63.909 E.02897
G1 X124.697 Y63.527 E.02897
G1 X124.335 Y63.078 E.02897
G1 X124.053 Y62.574 E.02897
G1 X123.861 Y62.03 E.02897
G1 X123.763 Y61.461 E.02897
G1 X123.763 Y60.884 E.02897
G1 X123.861 Y60.315 E.02897
G1 X124.053 Y59.771 E.02897
G1 X124.335 Y59.267 E.02897
G1 X124.697 Y58.818 E.02897
G1 X125.131 Y58.437 E.02897
G1 X125.622 Y58.134 E.02897
G1 X126.158 Y57.919 E.02897
G1 X126.722 Y57.797 E.02897
G1 X127.255 Y57.775 E.0268
G1 X127.865 Y57.844 E.03081
G1 X128.423 Y58.015 E.02928
G1 X128.938 Y58.275 E.02897
G1 X129.402 Y58.618 E.02897
G1 X129.802 Y59.035 E.02897
G1 X130.125 Y59.513 E.02897
G1 X130.363 Y60.039 E.02897
G1 X130.508 Y60.598 E.02897
G1 X130.557 Y61.173 E.02897
G1 X130.508 Y61.748 E.02897
G1 X130.363 Y62.305 E.0289
G1 X130.024 Y62.218 F7800
G1 F1800
G1 X129.84 Y62.626 E.02249
G1 X129.535 Y63.09 E.02786
G1 X129.174 Y63.468 E.02621
G1 X128.757 Y63.776 E.02602
G1 X128.294 Y64.009 E.02602
G1 X127.798 Y64.161 E.02602
G1 X127.284 Y64.227 E.02602
G1 X126.766 Y64.205 E.02602
G1 X126.259 Y64.096 E.02602
G1 X125.778 Y63.902 E.02602
G1 X125.336 Y63.631 E.02602
G1 X124.947 Y63.288 E.02602
G1 X124.622 Y62.885 E.02602
G1 X124.369 Y62.432 E.02602
G1 X124.196 Y61.943 E.02602
G1 X124.108 Y61.432 E.02602
G1 X124.108 Y60.914 E.02602
G1 X124.196 Y60.403 E.02602
G1 X124.369 Y59.914 E.02602
G1 X124.622 Y59.461 E.02602
G1 X124.947 Y59.058 E.02602
G1 X125.336 Y58.715 E.02602
G1 X125.778 Y58.443 E.02602
G1 X126.259 Y58.25 E.02602
G1 X126.766 Y58.141 E.02602
G1 X127.243 Y58.12 E.02397
G1 X127.795 Y58.183 E.02786
G1 X128.294 Y58.336 E.02621
G1 X128.757 Y58.57 E.02602
G1 X129.174 Y58.878 E.02602
G1 X129.533 Y59.252 E.02602
G1 X129.823 Y59.682 E.02602
G1 X130.036 Y60.154 E.02602
G1 X130.167 Y60.656 E.02602
G1 X130.211 Y61.173 E.02602
G1 X130.167 Y61.689 E.02602
G1 X130.044 Y62.162 E.02448
